packages/ui-icons/svg/Solid/keyboard-shortcuts.svg

<svg viewBox="0 0 1920 1920" version="1.1" xmlns="http://www.w3.org/2000/svg">
    <path d="M1524.70588,1242.41176 C1555.87765,1242.41176 1581.17647,1267.71059 1581.17647,1298.88235 L1581.17647,1411.82353 C1581.17647,1442.99529 1555.87765,1468.29412 1524.70588,1468.29412 L1411.76471,1468.29412 C1380.59294,1468.29412 1355.29412,1442.99529 1355.29412,1411.82353 L1355.29412,1298.88235 C1355.29412,1267.71059 1380.59294,1242.41176 1411.76471,1242.41176 L1524.70588,1242.41176 Z M1185.88235,1242.41176 C1217.05412,1242.41176 1242.35294,1267.71059 1242.35294,1298.88235 L1242.35294,1411.82353 C1242.35294,1442.99529 1217.05412,1468.29412 1185.88235,1468.29412 L734.117647,1468.29412 C702.945882,1468.29412 677.647059,1442.99529 677.647059,1411.82353 L677.647059,1298.88235 C677.647059,1267.71059 702.945882,1242.41176 734.117647,1242.41176 L1185.88235,1242.41176 Z M508.235294,1242.41176 C539.407059,1242.41176 564.705882,1267.71059 564.705882,1298.88235 L564.705882,1411.82353 C564.705882,1442.99529 539.407059,1468.29412 508.235294,1468.29412 L395.294118,1468.29412 C364.122353,1468.29412 338.823529,1442.99529 338.823529,1411.82353 L338.823529,1298.88235 C338.823529,1267.71059 364.122353,1242.41176 395.294118,1242.41176 L508.235294,1242.41176 Z M1524.70588,903.588235 C1555.87765,903.588235 1581.17647,928.887059 1581.17647,960.058824 L1581.17647,1073 C1581.17647,1104.17176 1555.87765,1129.47059 1524.70588,1129.47059 L1411.76471,1129.47059 C1380.59294,1129.47059 1355.29412,1104.17176 1355.29412,1073 L1355.29412,960.058824 C1355.29412,928.887059 1380.59294,903.588235 1411.76471,903.588235 L1524.70588,903.588235 Z M1185.88235,903.588235 C1217.05412,903.588235 1242.35294,928.887059 1242.35294,960.058824 L1242.35294,1073 C1242.35294,1104.17176 1217.05412,1129.47059 1185.88235,1129.47059 L1072.94118,1129.47059 C1041.76941,1129.47059 1016.47059,1104.17176 1016.47059,1073 L1016.47059,960.058824 C1016.47059,928.887059 1041.76941,903.588235 1072.94118,903.588235 L1185.88235,903.588235 Z M508.235294,903.588235 C539.407059,903.588235 564.705882,928.887059 564.705882,960.058824 L564.705882,1073 C564.705882,1104.17176 539.407059,1129.47059 508.235294,1129.47059 L395.294118,1129.47059 C364.122353,1129.47059 338.823529,1104.17176 338.823529,1073 L338.823529,960.058824 C338.823529,928.887059 364.122353,903.588235 395.294118,903.588235 L508.235294,903.588235 Z M847.058824,903.588235 C878.230588,903.588235 903.529412,928.887059 903.529412,960.058824 L903.529412,1073 C903.529412,1104.17176 878.230588,1129.47059 847.058824,1129.47059 L734.117647,1129.47059 C702.945882,1129.47059 677.647059,1104.17176 677.647059,1073 L677.647059,960.058824 C677.647059,928.887059 702.945882,903.588235 734.117647,903.588235 L847.058824,903.588235 Z M1750.58824,564.764706 L1021.32706,564.764706 C1036.23529,477.8 1087.28471,451.258824 1154.71059,417.602353 C1244.04706,372.990588 1355.29412,317.310588 1355.29412,113 L1242.35294,113 C1242.35294,247.512941 1184.41412,276.425882 1104.11294,316.632941 C1023.81176,356.727059 926.569412,406.872941 907.595294,564.764706 L169.411765,564.764706 C76.0094118,564.764706 0,640.774118 0,734.176471 L0,1637.70588 C0,1731.10824 76.0094118,1807.11765 169.411765,1807.11765 L1750.58824,1807.11765 C1843.99059,1807.11765 1920,1731.10824 1920,1637.70588 L1920,734.176471 C1920,640.774118 1843.99059,564.764706 1750.58824,564.764706 L1750.58824,564.764706 Z" stroke="none" stroke-width="1" fill-rule="evenodd"/>
</svg>

<svg viewBox="0 0 1920 1920" xmlns="http://www.w3.org/2000/svg">
    <path d="M1524.706 1242.412c31.172 0 56.47 25.299 56.47 56.47v112.942c0 31.171-25.298 56.47-56.47 56.47h-112.941c-31.172 0-56.47-25.299-56.47-56.47v-112.942c0-31.171 25.298-56.47 56.47-56.47h112.94Zm-338.824 0c31.172 0 56.47 25.299 56.47 56.47v112.942c0 31.171-25.298 56.47-56.47 56.47H734.118c-31.172 0-56.47-25.299-56.47-56.47v-112.942c0-31.171 25.298-56.47 56.47-56.47h451.764Zm-677.647 0c31.172 0 56.47 25.299 56.47 56.47v112.942c0 31.171-25.298 56.47-56.47 56.47h-112.94c-31.173 0-56.471-25.299-56.471-56.47v-112.942c0-31.171 25.298-56.47 56.47-56.47h112.941Zm1016.47-338.824c31.173 0 56.471 25.3 56.471 56.47V1073c0 31.172-25.298 56.47-56.47 56.47h-112.941c-31.172 0-56.47-25.298-56.47-56.47V960.059c0-31.172 25.298-56.47 56.47-56.47h112.94Zm-338.823 0c31.172 0 56.47 25.3 56.47 56.47V1073c0 31.172-25.298 56.47-56.47 56.47h-112.94c-31.173 0-56.471-25.298-56.471-56.47V960.059c0-31.172 25.298-56.47 56.47-56.47h112.941Zm-677.647 0c31.172 0 56.47 25.3 56.47 56.47V1073c0 31.172-25.298 56.47-56.47 56.47h-112.94c-31.173 0-56.471-25.298-56.471-56.47V960.059c0-31.172 25.298-56.47 56.47-56.47h112.941Zm338.824 0c31.172 0 56.47 25.3 56.47 56.47V1073c0 31.172-25.298 56.47-56.47 56.47H734.118c-31.172 0-56.47-25.298-56.47-56.47V960.059c0-31.172 25.298-56.47 56.47-56.47h112.94Zm903.53-338.823h-729.262c14.908-86.965 65.958-113.506 133.384-147.163 89.336-44.611 200.583-100.291 200.583-304.602h-112.941c0 134.513-57.939 163.426-138.24 203.633-80.301 40.094-177.544 90.24-196.518 248.132H169.412C76.009 564.765 0 640.775 0 734.176v903.53c0 93.402 76.01 169.412 169.412 169.412h1581.176c93.403 0 169.412-76.01 169.412-169.412v-903.53c0-93.402-76.01-169.411-169.412-169.411Z" fill-rule="evenodd"/>
</svg>
